X: 32811
T: Popcorn Behaviour
R: reel
M: 4/4
K: Aminor
e/e/g|:a2 e=f ecAc|BABc BGEG|AEAc AE (3ABc|B/B/A Bc B2 e/e/g|
a2 ef ecAc|BABc BGEG|DFAc dcAF|1 ECDB, A,2 e/e/g:|2 ECDB, A,B,CD||
|:EA,A,E FA,A,F|EA,A,E DA,A,D|A,B,CD EDEA|GECD EFED|
EA,A,E FA,A,F|^FA,A,^F =FA,A,F|DFAc dcAF|1 ECDB, A,B,CD:|2 ECDB, A,2 e/e/g||

